X:1
T:Reel Beatrice
M:4/4
L:1/8
R:reel
K:Amin
A,B, |: C2 A,C ECCE | AEED E2 AB | c2Ac ecce | aeed e2ab |
c'bag fedc | Bdd^c d4 | e^def e=dcB |1 cdBc A2A,B, :|2 cdBc A3a |:
a2 ^ga bf (3fff | fe^de a4 | e2ef edcB| cdBc A2 a2 |
a2^ga bf (3fff | fe^de a4 | e2ef edcB |1 cdBc A2a2 :|2 cdBc A2G2 |:
K:C
c2G2 cGce | c2G2 cGce | d2B2G2dB | cc'ba gfed |
c2G2 cGce | c2G2 cGce | d2B2 G2dB | c2cB c4 :|
